shader_type spatial;

instance uniform vec4 my_color : source_color = vec4(1.0, 0.5, 0.0, 1.0);

void fragment() {
	// Place fragment code here.
  //COLOR = texture(TEXTURE, UV); //read from texture
  //COLOR.b = 1.0; //set blue channel to 1.0
}
